X:551
T:Queen Victoria's Diamond Jubilee 
C:Joe Buchanan's Scottish Tome - Page 104.2
I:104 2
R:Reel
Z:Carl Allison
L:1/16
M:4/4
K:Dmaj
f2 | "D"A2f2 f>ef<a | "G"g2B2 e2>d2  | "A"c2e2 B2>c2 | "D"B2A2 f2>d2 |
"D"A2f2 f>ef<a | "G"g2B2 e2d2  | "A"c2a2 "A7"a>gf<e | "D"{c}d4 dd :|
f2 | "D"A2f2 f>ed<c | "G"B2g2 g>fe<d | "A7"c2a2 a>gf<e | "D"d>cd<e "G"f>ed<B |
"D"A2f2 f>ed<c | "G"B2g2 g>fe<d | "A"c2a2 "A7"a>gf<e | "D"{c}d4 dd :|

